X:1
T:Jesus Lives, and So Do We
T:Tune: Johann Crüger, 1653 Text under copyright; for copyrighted material see Psalter Hymnal 399
T:78 78 77 JESU, MEINE ZUVERSICHT www.hymnary.org/text/jesus_lives_and_so_do_we
T:Jesus Lives, and So Do We
T:This tune is in the public domain. You may freely use this score for personal and congregational worship. If you reproduce the score, please credit Hymnary.org as the source. 
T:This tune is in the public domain. You may freely use this score for personal and congregational worship. If you reproduce the score, please credit Hymnary.org as the source. 
Z:This tune is in the public domain. You may freely use this score for personal and congregational worship. If you reproduce the score, please credit Hymnary.org as the source.
%%score ( 1 2 ) ( 3 4 )
L:1/8
M:10/4
K:C
V:1 treble nm="SOPRANO ALTO" snm="S. A."
V:2 treble 
V:3 bass nm="TENOR BASS" snm="T. B."
V:4 bass 
V:1
 G4 E4 A2 B2 c3 c B4 | A4 c4 G2 E2 | F2 E2 D4 C4 | G4 E4 A2 B2 c3 c B4 | A4 c4 G2 E2 F2 E2 D4 C4 | %5
 E4 ^F4 |1 ^G2 A2 A2 G2 A4 | B2 c2 d2 e2 d3 d c4 |] %8
V:2
 E4 C4 C2 D2 E3 E E4 | C4 C4 D2 C2 | CB, C2 (C2 B,2) C4 | E4 C4 C2 D2 E3 E E4 | %4
 C4 C4 D2 C2 CB, C2 (C2 B,2) C4 | C4 C4 |1 E2 E2 =F2 E2 E4 | E2 E2 F2 G2 A2 GF E4 |] %8
V:3
 C4 G,4 F,2 F,2 G,2 A,2 ^G,4 | A,4 =G,4 G,2 G,2 | F,2 G,2 (A,2 G,2) E,4 | %3
 C4 G,4 F,2 F,2 G,2 A,2 ^G,4 | A,4 =G,4 G,2 G,2 F,2 G,2 (A,2 G,2) E,4 | G,4 A,4 |1 %6
 B,2 A,2 B,2 B,2 C4 | ^G,2 A,2 A,B, C2 C2 B,2 C4 |] %8
V:4
 C,4 C,4 F,2 D,2 C,2 A,,2 E,4 | F,4 E,4 B,,2 C,2 | D,2 E,2 (F,2 G,2) C,4 | %3
 C,4 C,4 F,2 D,2 C,2 A,,2 E,4 | F,4 E,4 B,,2 C,2 D,2 E,2 (F,2 G,2) C,4 | C,4 A,,4 |1 %6
 E,2 C,2 D,2 E,2 A,,4 | E,2 A,,2 D,2 C,2 F,2 =G,2 C,4 |] %8

